resources/haticons/SVG/switch_camera.svg

<!-- Generated by IcoMoon.io -->
<svg version="1.1" xmlns="http://www.w3.org/2000/svg" width="24" height="24" viewBox="0 0 24 24">
<title>switch_camera</title>
<path d="M15 15.516l3.516-3.516-3.516-3.516v2.531h-6v-2.531l-3.516 3.516 3.516 3.516v-2.531h6v2.531zM20.016 3.984q0.797 0 1.383 0.609t0.586 1.406v12q0 0.797-0.586 1.406t-1.383 0.609h-16.031q-0.797 0-1.383-0.609t-0.586-1.406v-12q0-0.797 0.586-1.406t1.383-0.609h3.188l1.828-1.969h6l1.828 1.969h3.188z"></path>
</svg>

<svg xmlns="http://www.w3.org/2000/svg" width="24" height="24"><path d="M15 15.516L18.516 12 15 8.484v2.531H9V8.484L5.484 12 9 15.516v-2.531h6v2.531zm5.016-11.532q.797 0 1.383.609t.586 1.406v12q0 .797-.586 1.406t-1.383.609H3.985q-.797 0-1.383-.609t-.586-1.406v-12q0-.797.586-1.406t1.383-.609h3.188l1.828-1.969h6l1.828 1.969h3.188z"/></svg>
